X:168010
T:The Steamboat
Q:3/8=90
K:HP
M:6/8
L:1/8
R:March
U: R = ///
U: r = //
U: V = !accent!
V:M gstem=up stem=down name="Melody"
V:H gstem=up stem=down name="Harmony"
V:C gstem=up stem=down name="C-Harmony"
V:S gstem=up stem=down dyn=up stafflines=1 clef=perc middle=G name="Snare" sname="Snare"" sname="Snare"
V:B gstem=up stem=down clef=none dyn=up name="Bass"
V:T gstem=up stem=down clef=none dyn=up name="Tenor"
V:BB gstem=up stem=down name="Brass Bass" sname="ABCD-C" transpose=-1  octave=-1 clef=bass
V:BC gstem=up stem=down name="Brass Chord" sname="ABCD-D" transpose=-1
V:BD gstem=up stem=down name="Brass Chord 2" sname="ABCD-B" transpose=-1
V:P gstem=up stem=down name="Piano" octave=-1
T: The Steamboat
%%MIDI program 110 
%%MIDI vol 100
%%landscape
V:M
%%MIDI program 110 
%%MIDI vol 100
%%MIDI droneon
|:e | {ag}a2e {gcd}c2{e}A | {g}A>{d}ce {ag}a3   | {g}a>g{a}f {gef}e>dc | {g}B>cd {gcd}c>B{e}A | $
V:M
    | {ag}a2e {gcd}c2{e}A | {g}A>{d}ce {ag}a3   | {g}a>g{a}f {gef}e>dc | {gef}e>c{e}A {GAG}A2 :| $
V:M
|:B | {gcd}c2e {g}e>fe    | {g}e>fe {gcd}c2{e}A | {Gdc}d2f {g}f<af     | {g}f>ga {fg}f2e | $
V:M
    | {gcd}c2e {g}e>fe    | {g}e>fe {gcd}c2{e}A | {ag}a>g{a}f {gef}e>dc | {gef}e>c{e}A {GAG}A2 :| $
T:Bonnie Dundee 
V:M
 |: {g}c/2<d/2 | {g}e2 {GdG}e {gef}e>{g}ce 	| a>g{a}f {gef}e2 d     | {g}c<e{g}A {g}c<ec   | {g}B2{GdGe}B {gBd}B>cd | $
V:M
       x | {g}e2 {GdG}e {gef}e>{g}ce 	| a>g{a}f {gef}e2 d     | {g}c<e{g}A {g}c<ec   | {g}A2{GdGe}A {GAG}A2 :| $
V:M
  |: G  | {g}A2{GdGe}A {Gdc}d2c     	| {g}B2{GdGe}B {gBd}B3  | {g}B2{GdGe}B {g}B>cd | {g}c2{GdGe}c {gcd}c2 {e}A | $
V:M
       x | {gcd}c>{e}B{d}c {Gdc}d>{g}cd  | {g}e2{GdG}e {gfg}f>ed |{g}c<e{g}A {g}c<ec    | {g}A2{GdGe}A {GAG}A2 :| $
